X: 10532
M: C|
L: 1/8
K: A
(uc>d) |\
(e>a)g>b (a>f)d>B | (A>G)A>B (c>A)E>D |\
(C>E)Ac (d>c)B>A | (G>B)e>g (f>d)e>c |
(e>a)g>b (a>f)d>B | (A>G)A>B (c>A)E>D |\
|: z2 |\
(B>c)B>A (G>B)e>f | (g>a)g>e (B>e)g>b | (a>g)f>a (g>f)e>g | fbeb dbcb |
(B>c)B>A (G>B)e>f | (g>a)g>e (B>e)g>b | a>fd>B (3dcB (3AGF | (3EGB (3egb e'2 :|


